report_00007_2020-12-11T15:55:29.892Z/network-server-latency/samples/pages+cached+noexternal+nojs/raw/values.svg

<svg width="640" height="490" xmlns="http://www.w3.org/2000/svg" xmlns:xlink="http://www.w3.org/1999/xlink"><path fill="#fff" d="M0 0h640v490H0z"/><defs><path id="d" stroke-width=".222" stroke="currentColor" d="M-1-1h2v2h-2z"/><path id="b" stroke-width=".222" stroke="currentColor" d="M0-1.33l-1.33 2h2.66z"/><path id="f" stroke-width=".222" stroke="currentColor" d="M0 1.33L1.265.411.782-1.067l-1.564-.009-.483 1.487z"/><use xlink:href="#b" id="c" stroke="currentColor" transform="rotate(180)"/><use xlink:href="#d" id="e" stroke="currentColor" transform="rotate(45)"/><circle id="a" stroke-width=".222" stroke="currentColor" cx="0" cy="0" r="1"/></defs><g fill="none" color="#000" stroke="currentColor"><path stroke="#000" d="M37.3 435.3h9m568.7 0h-9"/><text transform="translate(29 439.2)" stroke="none" fill="#000" font-family="Arial" font-size="12" text-anchor="end"><tspan>1</tspan></text></g><g fill="none" color="#000" stroke="currentColor"><path stroke="#000" d="M37.3 376.4h9m568.7 0h-9"/><text transform="translate(29 380.3)" stroke="none" fill="#000" font-family="Arial" font-size="12" text-anchor="end"><tspan>2</tspan></text></g><g fill="none" color="#000" stroke="currentColor"><path stroke="#000" d="M37.3 317.6h9m568.7 0h-9"/><text transform="translate(29 321.5)" stroke="none" fill="#000" font-family="Arial" font-size="12" text-anchor="end"><tspan>3</tspan></text></g><g fill="none" color="#000" stroke="currentColor"><path stroke="#000" d="M37.3 258.7h9m568.7 0h-9"/><text transform="translate(29 262.6)" stroke="none" fill="#000" font-family="Arial" font-size="12" text-anchor="end"><tspan>4</tspan></text></g><g fill="none" color="#000" stroke="currentColor"><path stroke="#000" d="M37.3 199.8h9m568.7 0h-9"/><text transform="translate(29 203.7)" stroke="none" fill="#000" font-family="Arial" font-size="12" text-anchor="end"><tspan>5</tspan></text></g><g fill="none" color="#000" stroke="currentColor"><path stroke="#000" d="M37.3 140.9h9m568.7 0h-9"/><text transform="translate(29 144.8)" stroke="none" fill="#000" font-family="Arial" font-size="12" text-anchor="end"><tspan>6</tspan></text></g><g fill="none" color="#000" stroke="currentColor"><path stroke="#000" d="M37.3 82.1h9m568.7 0h-9"/><text transform="translate(29 86)" stroke="none" fill="#000" font-family="Arial" font-size="12" text-anchor="end"><tspan>7</tspan></text></g><g fill="none" color="#000" stroke="currentColor"><path stroke="#000" d="M37.3 23.2h9m568.7 0h-9"/><text transform="translate(29 27.1)" stroke="none" fill="#000" font-family="Arial" font-size="12" text-anchor="end"><tspan>8</tspan></text></g><g fill="none" color="#000" stroke="currentColor"><path stroke="#000" d="M37.3 436v-9m0-408.9v9"/><text transform="translate(37.3 457.9)" stroke="none" fill="#000" font-family="Arial" font-size="12" text-anchor="middle"><tspan>0</tspan></text></g><g fill="none" color="#000" stroke="currentColor"><path stroke="#000" d="M95.7 436v-9m0-408.9v9"/><text transform="translate(95.7 457.9)" stroke="none" fill="#000" font-family="Arial" font-size="12" text-anchor="middle"><tspan>10</tspan></text></g><g fill="none" color="#000" stroke="currentColor"><path stroke="#000" d="M154 436v-9m0-408.9v9"/><text transform="translate(154 457.9)" stroke="none" fill="#000" font-family="Arial" font-size="12" text-anchor="middle"><tspan>20</tspan></text></g><g fill="none" color="#000" stroke="currentColor"><path stroke="#000" d="M212.4 436v-9m0-408.9v9"/><text transform="translate(212.4 457.9)" stroke="none" fill="#000" font-family="Arial" font-size="12" text-anchor="middle"><tspan>30</tspan></text></g><g fill="none" color="#000" stroke="currentColor"><path stroke="#000" d="M270.7 436v-9m0-408.9v9"/><text transform="translate(270.7 457.9)" stroke="none" fill="#000" font-family="Arial" font-size="12" text-anchor="middle"><tspan>40</tspan></text></g><g fill="none" color="#000" stroke="currentColor"><path stroke="#000" d="M329.1 436v-9m0-408.9v9"/><text transform="translate(329.1 457.9)" stroke="none" fill="#000" font-family="Arial" font-size="12" text-anchor="middle"><tspan>50</tspan></text></g><g fill="none" color="#000" stroke="currentColor"><path stroke="#000" d="M387.4 436v-9m0-408.9v9"/><text transform="translate(387.4 457.9)" stroke="none" fill="#000" font-family="Arial" font-size="12" text-anchor="middle"><tspan>60</tspan></text></g><g fill="none" color="#000" stroke="currentColor"><path stroke="#000" d="M445.8 436v-9m0-408.9v9"/><text transform="translate(445.8 457.9)" stroke="none" fill="#000" font-family="Arial" font-size="12" text-anchor="middle"><tspan>70</tspan></text></g><g fill="none" color="#000" stroke="currentColor"><path stroke="#000" d="M504.1 436v-9m0-408.9v9"/><text transform="translate(504.1 457.9)" stroke="none" fill="#000" font-family="Arial" font-size="12" text-anchor="middle"><tspan>80</tspan></text></g><g fill="none" color="#000" stroke="currentColor"><path stroke="#000" d="M562.5 436v-9m0-408.9v9"/><text transform="translate(562.5 457.9)" stroke="none" fill="#000" font-family="Arial" font-size="12" text-anchor="middle"><tspan>90</tspan></text></g><path stroke="#000" d="M37.3 18.1V436H615V18.1H37.3z" fill="none" color="#000"/><text transform="translate(309.2 475.9)" stroke="none" fill="#000" font-family="Arial" font-size="12" text-anchor="end" color="#000"><tspan>raw</tspan></text><path stroke="#9400D3" d="M317.5 472h42.2M37.3 192.7l5.8-65.7L49 75.1l5.8 29 5.8 57 5.9 27.5 5.8-30.1 5.8-68.8 5.9 25.4 5.8 36 5.9-61.2 5.8 81.3 5.8-6.9 5.9-25.4 5.8 12.9 5.8-11.8 5.9 44.4 5.8-85.8 5.8 60.3 5.9-20 5.8 6.7 5.8-82.1 5.9 61 5.8 33.2 5.8-131.6 5.9 117.5 5.8 16 5.9-57 5.8 19.7 5.8 58.7 5.9-79.2 5.8 136.5 5.8 100.4 5.9-177.1 5.8 8.7 5.8-35.9 5.9 40.6 5.8-41.3L259 28.5l5.9 124.8 5.8 37.3 5.8 12.9 5.9 180.4 5.8-286.7 5.9 64.8 5.8-78.9 5.8 48.7 5.9 42.4 5.8-27.3 5.8 61.7 5.9 68.9 5.8-110.8 5.8-110.4 5.9 134.6 5.8 9.4 5.8 227.7 5.9-292.2 5.8 38.3 5.9-99.6 5.8 25.6 5.8 81.2 5.9-78.3 5.8 73.4 5.8-59.8 5.9 29.1 5.8-37.5 5.8 14.7 5.9-23.2 5.8 80.5 5.8.5 5.9-9.6 5.8 3.8 5.8-18 5.9-89.2 5.8 62.6 5.9-.3 5.8 35 5.8-4.4 5.9-9.3 5.8-19.9 5.8-76.9 5.9 23.1 5.8 73.9 5.8 17.1 5.9-1.6 5.8-75.7 5.8 22.9 5.9 110.2 5.8-77.1 5.8-7.1 5.9 13.7 5.8-41.6 5.9 24.5 5.8 38.6 5.8-50.6 5.9 26 5.8-49.1 5.8 80.3 5.9 11.7 5.8-71.3" fill="none" color="#000"/><g fill="none" color="#000" stroke="currentColor"><path stroke="#000" d="M37.3 18.1V436H615V18.1H37.3z"/></g></svg>

<?xml version="1.0" encoding="utf-8"  standalone="no"?>
<svg 
 width="640" height="490"
 viewBox="0 0 640 490"
 xmlns="http://www.w3.org/2000/svg"
 xmlns:xlink="http://www.w3.org/1999/xlink"
>

<title>Gnuplot</title>
<desc>Produced by GNUPLOT 5.4 patchlevel 0 </desc>

<g id="gnuplot_canvas">

<rect x="0" y="0" width="640" height="490" fill="#ffffff"/>
<defs>

	<circle id='gpDot' r='0.5' stroke-width='0.5' stroke='currentColor'/>
	<path id='gpPt0' stroke-width='0.222' stroke='currentColor' d='M-1,0 h2 M0,-1 v2'/>
	<path id='gpPt1' stroke-width='0.222' stroke='currentColor' d='M-1,-1 L1,1 M1,-1 L-1,1'/>
	<path id='gpPt2' stroke-width='0.222' stroke='currentColor' d='M-1,0 L1,0 M0,-1 L0,1 M-1,-1 L1,1 M-1,1 L1,-1'/>
	<rect id='gpPt3' stroke-width='0.222' stroke='currentColor' x='-1' y='-1' width='2' height='2'/>
	<rect id='gpPt4' stroke-width='0.222' stroke='currentColor' fill='currentColor' x='-1' y='-1' width='2' height='2'/>
	<circle id='gpPt5' stroke-width='0.222' stroke='currentColor' cx='0' cy='0' r='1'/>
	<use xlink:href='#gpPt5' id='gpPt6' fill='currentColor' stroke='none'/>
	<path id='gpPt7' stroke-width='0.222' stroke='currentColor' d='M0,-1.33 L-1.33,0.67 L1.33,0.67 z'/>
	<use xlink:href='#gpPt7' id='gpPt8' fill='currentColor' stroke='none'/>
	<use xlink:href='#gpPt7' id='gpPt9' stroke='currentColor' transform='rotate(180)'/>
	<use xlink:href='#gpPt9' id='gpPt10' fill='currentColor' stroke='none'/>
	<use xlink:href='#gpPt3' id='gpPt11' stroke='currentColor' transform='rotate(45)'/>
	<use xlink:href='#gpPt11' id='gpPt12' fill='currentColor' stroke='none'/>
	<path id='gpPt13' stroke-width='0.222' stroke='currentColor' d='M0,1.330 L1.265,0.411 L0.782,-1.067 L-0.782,-1.076 L-1.265,0.411 z'/>
	<use xlink:href='#gpPt13' id='gpPt14' fill='currentColor' stroke='none'/>
	<filter id='textbox' filterUnits='objectBoundingBox' x='0' y='0' height='1' width='1'>
	  <feFlood flood-color='#FFFFFF' flood-opacity='1' result='bgnd'/>
	  <feComposite in='SourceGraphic' in2='bgnd' operator='atop'/>
	</filter>
	<filter id='greybox' filterUnits='objectBoundingBox' x='0' y='0' height='1' width='1'>
	  <feFlood flood-color='lightgrey' flood-opacity='1' result='grey'/>
	  <feComposite in='SourceGraphic' in2='grey' operator='atop'/>
	</filter>
</defs>
<g fill="none" color="#FFFFFF" stroke="black" stroke-width="1.00" stroke-linecap="butt" stroke-linejoin="miter">
</g>
<g fill="none" color="black" stroke="currentColor" stroke-width="1.00" stroke-linecap="butt" stroke-linejoin="miter">
	<path stroke='black'  d='M37.3,435.3 L46.3,435.3 M615.0,435.3 L606.0,435.3  '/>	<g transform="translate(29.0,439.2)" stroke="none" fill="black" font-family="Arial" font-size="12.00"  text-anchor="end">
		<text><tspan font-family="Arial" > 1</tspan></text>
	</g>
</g>
<g fill="none" color="black" stroke="currentColor" stroke-width="1.00" stroke-linecap="butt" stroke-linejoin="miter">
	<path stroke='black'  d='M37.3,376.4 L46.3,376.4 M615.0,376.4 L606.0,376.4  '/>	<g transform="translate(29.0,380.3)" stroke="none" fill="black" font-family="Arial" font-size="12.00"  text-anchor="end">
		<text><tspan font-family="Arial" > 2</tspan></text>
	</g>
</g>
<g fill="none" color="black" stroke="currentColor" stroke-width="1.00" stroke-linecap="butt" stroke-linejoin="miter">
	<path stroke='black'  d='M37.3,317.6 L46.3,317.6 M615.0,317.6 L606.0,317.6  '/>	<g transform="translate(29.0,321.5)" stroke="none" fill="black" font-family="Arial" font-size="12.00"  text-anchor="end">
		<text><tspan font-family="Arial" > 3</tspan></text>
	</g>
</g>
<g fill="none" color="black" stroke="currentColor" stroke-width="1.00" stroke-linecap="butt" stroke-linejoin="miter">
	<path stroke='black'  d='M37.3,258.7 L46.3,258.7 M615.0,258.7 L606.0,258.7  '/>	<g transform="translate(29.0,262.6)" stroke="none" fill="black" font-family="Arial" font-size="12.00"  text-anchor="end">
		<text><tspan font-family="Arial" > 4</tspan></text>
	</g>
</g>
<g fill="none" color="black" stroke="currentColor" stroke-width="1.00" stroke-linecap="butt" stroke-linejoin="miter">
	<path stroke='black'  d='M37.3,199.8 L46.3,199.8 M615.0,199.8 L606.0,199.8  '/>	<g transform="translate(29.0,203.7)" stroke="none" fill="black" font-family="Arial" font-size="12.00"  text-anchor="end">
		<text><tspan font-family="Arial" > 5</tspan></text>
	</g>
</g>
<g fill="none" color="black" stroke="currentColor" stroke-width="1.00" stroke-linecap="butt" stroke-linejoin="miter">
	<path stroke='black'  d='M37.3,140.9 L46.3,140.9 M615.0,140.9 L606.0,140.9  '/>	<g transform="translate(29.0,144.8)" stroke="none" fill="black" font-family="Arial" font-size="12.00"  text-anchor="end">
		<text><tspan font-family="Arial" > 6</tspan></text>
	</g>
</g>
<g fill="none" color="black" stroke="currentColor" stroke-width="1.00" stroke-linecap="butt" stroke-linejoin="miter">
	<path stroke='black'  d='M37.3,82.1 L46.3,82.1 M615.0,82.1 L606.0,82.1  '/>	<g transform="translate(29.0,86.0)" stroke="none" fill="black" font-family="Arial" font-size="12.00"  text-anchor="end">
		<text><tspan font-family="Arial" > 7</tspan></text>
	</g>
</g>
<g fill="none" color="black" stroke="currentColor" stroke-width="1.00" stroke-linecap="butt" stroke-linejoin="miter">
	<path stroke='black'  d='M37.3,23.2 L46.3,23.2 M615.0,23.2 L606.0,23.2  '/>	<g transform="translate(29.0,27.1)" stroke="none" fill="black" font-family="Arial" font-size="12.00"  text-anchor="end">
		<text><tspan font-family="Arial" > 8</tspan></text>
	</g>
</g>
<g fill="none" color="black" stroke="currentColor" stroke-width="1.00" stroke-linecap="butt" stroke-linejoin="miter">
	<path stroke='black'  d='M37.3,436.0 L37.3,427.0 M37.3,18.1 L37.3,27.1  '/>	<g transform="translate(37.3,457.9)" stroke="none" fill="black" font-family="Arial" font-size="12.00"  text-anchor="middle">
		<text><tspan font-family="Arial" > 0</tspan></text>
	</g>
</g>
<g fill="none" color="black" stroke="currentColor" stroke-width="1.00" stroke-linecap="butt" stroke-linejoin="miter">
	<path stroke='black'  d='M95.7,436.0 L95.7,427.0 M95.7,18.1 L95.7,27.1  '/>	<g transform="translate(95.7,457.9)" stroke="none" fill="black" font-family="Arial" font-size="12.00"  text-anchor="middle">
		<text><tspan font-family="Arial" > 10</tspan></text>
	</g>
</g>
<g fill="none" color="black" stroke="currentColor" stroke-width="1.00" stroke-linecap="butt" stroke-linejoin="miter">
	<path stroke='black'  d='M154.0,436.0 L154.0,427.0 M154.0,18.1 L154.0,27.1  '/>	<g transform="translate(154.0,457.9)" stroke="none" fill="black" font-family="Arial" font-size="12.00"  text-anchor="middle">
		<text><tspan font-family="Arial" > 20</tspan></text>
	</g>
</g>
<g fill="none" color="black" stroke="currentColor" stroke-width="1.00" stroke-linecap="butt" stroke-linejoin="miter">
	<path stroke='black'  d='M212.4,436.0 L212.4,427.0 M212.4,18.1 L212.4,27.1  '/>	<g transform="translate(212.4,457.9)" stroke="none" fill="black" font-family="Arial" font-size="12.00"  text-anchor="middle">
		<text><tspan font-family="Arial" > 30</tspan></text>
	</g>
</g>
<g fill="none" color="black" stroke="currentColor" stroke-width="1.00" stroke-linecap="butt" stroke-linejoin="miter">
	<path stroke='black'  d='M270.7,436.0 L270.7,427.0 M270.7,18.1 L270.7,27.1  '/>	<g transform="translate(270.7,457.9)" stroke="none" fill="black" font-family="Arial" font-size="12.00"  text-anchor="middle">
		<text><tspan font-family="Arial" > 40</tspan></text>
	</g>
</g>
<g fill="none" color="black" stroke="currentColor" stroke-width="1.00" stroke-linecap="butt" stroke-linejoin="miter">
	<path stroke='black'  d='M329.1,436.0 L329.1,427.0 M329.1,18.1 L329.1,27.1  '/>	<g transform="translate(329.1,457.9)" stroke="none" fill="black" font-family="Arial" font-size="12.00"  text-anchor="middle">
		<text><tspan font-family="Arial" > 50</tspan></text>
	</g>
</g>
<g fill="none" color="black" stroke="currentColor" stroke-width="1.00" stroke-linecap="butt" stroke-linejoin="miter">
	<path stroke='black'  d='M387.4,436.0 L387.4,427.0 M387.4,18.1 L387.4,27.1  '/>	<g transform="translate(387.4,457.9)" stroke="none" fill="black" font-family="Arial" font-size="12.00"  text-anchor="middle">
		<text><tspan font-family="Arial" > 60</tspan></text>
	</g>
</g>
<g fill="none" color="black" stroke="currentColor" stroke-width="1.00" stroke-linecap="butt" stroke-linejoin="miter">
	<path stroke='black'  d='M445.8,436.0 L445.8,427.0 M445.8,18.1 L445.8,27.1  '/>	<g transform="translate(445.8,457.9)" stroke="none" fill="black" font-family="Arial" font-size="12.00"  text-anchor="middle">
		<text><tspan font-family="Arial" > 70</tspan></text>
	</g>
</g>
<g fill="none" color="black" stroke="currentColor" stroke-width="1.00" stroke-linecap="butt" stroke-linejoin="miter">
	<path stroke='black'  d='M504.1,436.0 L504.1,427.0 M504.1,18.1 L504.1,27.1  '/>	<g transform="translate(504.1,457.9)" stroke="none" fill="black" font-family="Arial" font-size="12.00"  text-anchor="middle">
		<text><tspan font-family="Arial" > 80</tspan></text>
	</g>
</g>
<g fill="none" color="black" stroke="currentColor" stroke-width="1.00" stroke-linecap="butt" stroke-linejoin="miter">
	<path stroke='black'  d='M562.5,436.0 L562.5,427.0 M562.5,18.1 L562.5,27.1  '/>	<g transform="translate(562.5,457.9)" stroke="none" fill="black" font-family="Arial" font-size="12.00"  text-anchor="middle">
		<text><tspan font-family="Arial" > 90</tspan></text>
	</g>
</g>
<g fill="none" color="black" stroke="currentColor" stroke-width="1.00" stroke-linecap="butt" stroke-linejoin="miter">
</g>
<g fill="none" color="black" stroke="currentColor" stroke-width="1.00" stroke-linecap="butt" stroke-linejoin="miter">
	<path stroke='black'  d='M37.3,18.1 L37.3,436.0 L615.0,436.0 L615.0,18.1 L37.3,18.1 Z  '/></g>
<g fill="none" color="black" stroke="currentColor" stroke-width="1.00" stroke-linecap="butt" stroke-linejoin="miter">
</g>
	<g id="gnuplot_plot_1" ><title>raw</title>
<g fill="none" color="black" stroke="currentColor" stroke-width="1.00" stroke-linecap="butt" stroke-linejoin="miter">
	<g transform="translate(309.2,475.9)" stroke="none" fill="black" font-family="Arial" font-size="12.00"  text-anchor="end">
		<text><tspan font-family="Arial" >raw</tspan></text>
	</g>
</g>
<g fill="none" color="black" stroke="currentColor" stroke-width="1.00" stroke-linecap="butt" stroke-linejoin="miter">
	<path stroke='rgb(148,   0, 211)'  d='M317.5,472.0 L359.7,472.0 M37.3,192.7 L43.1,127.0 L49.0,75.1 L54.8,104.1 L60.6,161.1 L66.5,188.6
		L72.3,158.5 L78.1,89.7 L84.0,115.1 L89.8,151.1 L95.7,89.9 L101.5,171.2 L107.3,164.3 L113.2,138.9
		L119.0,151.8 L124.8,140.0 L130.7,184.4 L136.5,98.6 L142.3,158.9 L148.2,138.9 L154.0,145.6 L159.8,63.5
		L165.7,124.5 L171.5,157.7 L177.3,26.1 L183.2,143.6 L189.0,159.6 L194.9,102.6 L200.7,122.3 L206.5,181.0
		L212.4,101.8 L218.2,238.3 L224.0,338.7 L229.9,161.6 L235.7,170.3 L241.5,134.4 L247.4,175.0 L253.2,133.7
		L259.0,28.5 L264.9,153.3 L270.7,190.6 L276.5,203.5 L282.4,383.9 L288.2,97.2 L294.1,162.0 L299.9,83.1
		L305.7,131.8 L311.6,174.2 L317.4,146.9 L323.2,208.6 L329.1,277.5 L334.9,166.7 L340.7,56.3 L346.6,190.9
		L352.4,200.3 L358.2,428.0 L364.1,135.8 L369.9,174.1 L375.8,74.5 L381.6,100.1 L387.4,181.3 L393.3,103.0
		L399.1,176.4 L404.9,116.6 L410.8,145.7 L416.6,108.2 L422.4,122.9 L428.3,99.7 L434.1,180.2 L439.9,180.7
		L445.8,171.1 L451.6,174.9 L457.4,156.9 L463.3,67.7 L469.1,130.3 L475.0,130.0 L480.8,165.0 L486.6,160.6
		L492.5,151.3 L498.3,131.4 L504.1,54.5 L510.0,77.6 L515.8,151.5 L521.6,168.6 L527.5,167.0 L533.3,91.3
		L539.1,114.2 L545.0,224.4 L550.8,147.3 L556.6,140.2 L562.5,153.9 L568.3,112.3 L574.2,136.8 L580.0,175.4
		L585.8,124.8 L591.7,150.8 L597.5,101.7 L603.3,182.0 L609.2,193.7 L615.0,122.4  '/></g>
	</g>
<g fill="none" color="#FFFFFF" stroke="rgb(148,   0, 211)" stroke-width="2.00" stroke-linecap="butt" stroke-linejoin="miter">
</g>
<g fill="none" color="black" stroke="currentColor" stroke-width="2.00" stroke-linecap="butt" stroke-linejoin="miter">
</g>
<g fill="none" color="black" stroke="black" stroke-width="1.00" stroke-linecap="butt" stroke-linejoin="miter">
</g>
<g fill="none" color="black" stroke="currentColor" stroke-width="1.00" stroke-linecap="butt" stroke-linejoin="miter">
	<path stroke='black'  d='M37.3,18.1 L37.3,436.0 L615.0,436.0 L615.0,18.1 L37.3,18.1 Z  '/></g>
<g fill="none" color="black" stroke="currentColor" stroke-width="1.00" stroke-linecap="butt" stroke-linejoin="miter">
</g>
</g>
</svg>
